img/bucket.svg

<svg width="19" height="18" xmlns="http://www.w3.org/2000/svg"><path d="M11 0C6.092 0 3.002 1.592 3.21 2.95c.06.389.225 1.945.434 3.273C1.239 7.157.442 8.672.549 9.907c.127 1.461 1.441 3.025 4.328 3.295 1.648.154 3.631-.75 4.916-2.295a1.4 1.4 0 111.238.691c-1.529 1.973-3.858 3.164-6.064 3.025.051.324.07.947.096 1.113.09.579 2.347 2.26 5.937 2.264 3.59-.004 5.847-1.685 5.938-2.263.088-.577 1.641-11.409 1.852-12.787C18.998 1.592 15.907 0 11 0zM1.943 9.785c-.055-.643.455-1.498 1.924-2.139l.643 4.074c-1.604-.313-2.498-1.149-2.567-1.935zM11 5.024C7.41 5.022 4.863 3.69 4.863 3.192 4.861 2.698 7.41 1.402 11 1.404c3.59-.002 6.139 1.294 6.137 1.788 0 .498-2.547 1.83-6.137 1.832z" fill="#4E504D"/></svg>

<?xml version="1.0" encoding="UTF-8"?>
<svg width="19px" height="18px" viewBox="0 0 19 18" version="1.1" xmlns="http://www.w3.org/2000/svg" xmlns:xlink="http://www.w3.org/1999/xlink">
    <!-- Generator: Sketch 43.2 (39069) - http://www.bohemiancoding.com/sketch -->
    <title>bucket</title>
    <desc>Created with Sketch.</desc>
    <defs></defs>
    <g id="Page-1" stroke="none" stroke-width="1" fill="none" fill-rule="evenodd">
        <g id="bucket" fill-rule="nonzero" fill="#4E504D">
            <path d="M11,0 C6.092,0 3.002,1.592 3.21,2.95 C3.27,3.339 3.435,4.895 3.644,6.223 C1.239,7.157 0.442,8.672 0.549,9.907 C0.676,11.368 1.99,12.932 4.877,13.202 C6.525,13.356 8.508,12.452 9.793,10.907 C9.671,10.7 9.6,10.457 9.6,10.2 C9.6,9.426 10.227,8.8 11,8.8 C11.774,8.8 12.4,9.427 12.4,10.2 C12.4,10.962 11.79,11.581 11.031,11.598 C9.502,13.571 7.173,14.762 4.967,14.623 C5.018,14.947 5.037,15.57 5.063,15.736 C5.153,16.315 7.41,17.996 11,18 C14.59,17.996 16.847,16.315 16.938,15.737 C17.026,15.16 18.579,4.328 18.79,2.95 C18.998,1.592 15.907,0 11,0 Z M1.943,9.785 C1.888,9.142 2.398,8.287 3.867,7.646 C4.078,8.986 4.308,10.443 4.51,11.72 C2.906,11.407 2.012,10.571 1.943,9.785 Z M11,5.024 C7.41,5.022 4.863,3.69 4.863,3.192 C4.861,2.698 7.41,1.402 11,1.404 C14.59,1.402 17.139,2.698 17.137,3.192 C17.137,3.69 14.59,5.022 11,5.024 Z" id="Shape"></path>
        </g>
    </g>
</svg>
